remix/Document/file-shield-2-line.svg

<svg viewBox="0 0 24 24" fill="currentColor" xmlns="http://www.w3.org/2000/svg"><path d="M14 9V4H5V20H11.0563C11.3838 20.4171 11.7803 20.7847 12.236 21.0848L13.626 22H3.9934C3.44495 22 3 21.556 3 21.0082V2.9918C3 2.45531 3.4487 2 4.00221 2H14.9968L21 8V9H14ZM12 11H21V16.949C21 17.9397 20.4987 18.8648 19.6641 19.4144L16.5 21.4978L13.3359 19.4144C12.5013 18.8648 12 17.9397 12 16.949V11ZM14 16.949C14 17.2652 14.1616 17.5634 14.4358 17.744L16.5 19.1032L18.5642 17.744C18.8384 17.5634 19 17.2652 19 16.949V13H14V16.949Z"/></svg>

<svg viewBox="0 0 24 24" xmlns="http://www.w3.org/2000/svg"><path fill="none" d="M0 0h24v24H0Z"/><path d="M14 9V4H5v16h6.05c.32.41.72.78 1.18 1.08l1.39.91H3.98v-.001c-.55 0-1-.45-1-1V2.97c0-.54.44-1 1-1h10.99l6.003 6v1h-7Zm-2 2h9v5.94c0 .99-.51 1.91-1.34 2.465l-3.17 2.08 -3.17-2.09v0c-.84-.55-1.34-1.48-1.34-2.47v-5.95Zm2 5.94c0 .31.16.61.43.79l2.064 1.36 2.064-1.36h0c.27-.18.43-.48.43-.8v-3.95h-5v3.94Z"/></svg>
